X: 4
T: Aird Ranters
R: strathspey
M: 4/4
L: 1/8
K: Ador
"A"[|]z |\
"Am"e<a a>e "G"g<e d2 | "Am"e<a a>e "G"g2 e2 |\
"Am"e<a a>e "G"g<e e>d | "Am"c<A "G"A>G "Am"c<A A :|
"B"|: B |\
"Am"c>A "G"B>d "Am"c<A A>B | "Am"c<A A>B c<A A>B |\
"Am"c>A "G"B>d "Am"c<A A>B | "Am"c<A "G"A<G "Am"A2 A :|
